X: 1
T: Muiñeira De Chantada
Z: ceolachan
S: https://thesession.org/tunes/7738#setting7738
R: jig
M: 6/8
L: 1/8
K: Dmaj
|: d2 c |A2 B c2 A | B3 A2 G | E2 F G2 A | F2 D d2 c |
A2 B c2 A | BcB A2 G | E2 F G2 A | D3- :|
|: D2 A |c2 B BGE | B2 A AFD | A2 G E2 [CG] | B2 A AFA |
c2 B BGE | B2 A AFD | A2 G E2 F | D3 :|
|: D2 [A,A] |D3 EFG | A3- AFG | A^GA B2 A | A3 E3 |
E3 FGA | B3- BA^G | ABA GFE | F2 E D2 A |
D3 EFG | A3- AFG | A^GA d2 c | c3 B3 |
dcd e2 d | d3 A3 | ABA GFE | D3- :|
